24x24/apps/qtikz.svg

<svg xmlns="http://www.w3.org/2000/svg" width="24" height="24" version="1">
 <path style="fill:#f4f4f7" d="M 20,21 V 3 C 20,2.446 19.554,2 19,2 H 5 C 4.446,2 4,2.446 4,3 v 18 c 0,0.554 0.446,1 1,1 h 14 c 0.554,0 1,-0.446 1,-1 z"/>
 <path style="opacity:0.2" d="m 4,21 v 0.5 c 0,0.554 0.446,1 1,1 h 14 c 0.554,0 1,-0.446 1,-1 V 21 c 0,0.554 -0.446,1 -1,1 H 5 C 4.446,22 4,21.554 4,21 Z"/>
 <circle style="fill:#4f4f4f" cx="17.5" cy="17.5" r="5.5"/>
 <path style="fill:#f4f4f7" d="M 19.005859 15 C 18.930007 15 18.853822 15.028993 18.794922 15.087891 L 18.212891 15.673828 L 19.326172 16.787109 L 19.912109 16.205078 C 20.029905 16.087282 20.029905 15.902955 19.912109 15.785156 L 19.214844 15.087891 C 19.155946 15.028993 19.081712 15 19.005859 15 z M 17.505859 16.380859 L 15 18.886719 L 15 20 L 16.113281 20 L 18.619141 17.494141 L 17.505859 16.380859 z"/>
 <path style="opacity:0.2;fill:#f4f4f7" d="M 5,2 C 4.446,2 4,2.446 4,3 v 0.5 c 0,-0.554 0.446,-1 1,-1 h 14 c 0.554,0 1,0.446 1,1 V 3 C 20,2.446 19.554,2 19,2 Z"/>
</svg>

<svg xmlns="http://www.w3.org/2000/svg" width="24" height="24" version="1"><path style="fill:#f4f4f7" d="M20 21V3c0-.554-.446-1-1-1H5c-.554 0-1 .446-1 1v18c0 .554.446 1 1 1h14c.554 0 1-.446 1-1z"/><path style="opacity:.2" d="M4 21v.5c0 .554.446 1 1 1h14c.554 0 1-.446 1-1V21c0 .554-.446 1-1 1H5c-.554 0-1-.446-1-1z"/><circle style="fill:#4f4f4f" cx="17.5" cy="17.5" r="5.5"/><path style="fill:#f4f4f7" d="M19.006 15a.297.297 0 0 0-.211.088l-.582.586 1.113 1.113.586-.582a.294.294 0 0 0 0-.42l-.697-.697a.293.293 0 0 0-.21-.088zm-1.5 1.38L15 18.888V20h1.113l2.506-2.506-1.113-1.113z"/><path style="opacity:.2;fill:#f4f4f7" d="M5 2c-.554 0-1 .446-1 1v.5c0-.554.446-1 1-1h14c.554 0 1 .446 1 1V3c0-.554-.446-1-1-1z"/></svg>
